packages/foundations/assets/icons/functional/images/social/star.svg

<svg xmlns="http://www.w3.org/2000/svg" width="32" height="32" fill="none"><path fill="#1A1C1F" fill-rule="evenodd" d="M15.547 2.766c-.118.053-.25.139-.294.189-.044.051-.956 1.849-2.026 3.995l-1.947 3.903-4.293.618c-2.713.39-4.353.648-4.454.701-.503.263-.679.951-.36 1.409.081.116 1.521 1.55 3.2 3.187s3.054 2.987 3.054 2.999-.336 1.95-.746 4.305c-.814 4.675-.794 4.485-.499 4.875.072.096.23.224.35.286.459.234.374.27 4.588-1.943 2.105-1.106 3.851-2.01 3.88-2.01s1.775.904 3.879 2.009c4.06 2.131 4.075 2.138 4.511 1.994.104-.034.274-.156.377-.27.364-.402.386-.151-.446-4.922a1057 1057 0 0 1-.748-4.318c0-.016 1.374-1.368 3.054-3.005s3.119-3.071 3.2-3.187c.319-.458.143-1.146-.36-1.409-.101-.053-1.741-.311-4.454-.701l-4.293-.618-1.947-3.903c-1.07-2.146-1.982-3.944-2.026-3.995-.235-.27-.82-.362-1.2-.189M17.6 9.104c.865 1.749 1.618 3.237 1.672 3.307.219.28.358.309 3.906.813 1.875.266 3.462.496 3.527.511.1.022-.117.257-1.467 1.583-3.505 3.444-3.679 3.624-3.721 3.849-.029.156.115 1.092.579 3.76.339 1.953.612 3.555.607 3.559s-1.45-.751-3.21-1.679c-3.075-1.62-3.211-1.686-3.493-1.686s-.418.066-3.493 1.686c-1.76.928-3.205 1.683-3.21 1.679s.265-1.54.6-3.413.61-3.513.61-3.645c0-.131-.038-.319-.085-.416-.047-.099-1.229-1.301-2.659-2.702-1.946-1.908-2.553-2.532-2.489-2.56.047-.02 1.632-.256 3.521-.523 3.577-.507 3.713-.535 3.933-.816.054-.069.807-1.557 1.672-3.307s1.585-3.181 1.6-3.181.735 1.431 1.6 3.181"/></svg>

<svg width="32" height="32" viewBox="0 0 32 32" fill="none" xmlns="http://www.w3.org/2000/svg"><path d="M15.547 2.766 C 15.429 2.819,15.297 2.905,15.253 2.955 C 15.209 3.006,14.297 4.804,13.227 6.950 L 11.280 10.853 6.987 11.471 C 4.274 11.861,2.634 12.119,2.533 12.172 C 2.030 12.435,1.854 13.123,2.173 13.581 C 2.254 13.697,3.694 15.131,5.373 16.768 C 7.053 18.405,8.427 19.755,8.427 19.767 C 8.427 19.780,8.091 21.717,7.681 24.072 C 6.867 28.747,6.887 28.557,7.182 28.947 C 7.254 29.043,7.412 29.171,7.532 29.233 C 7.991 29.467,7.906 29.503,12.120 27.290 C 14.225 26.184,15.971 25.280,16.000 25.280 C 16.029 25.280,17.775 26.184,19.879 27.289 C 23.939 29.420,23.954 29.427,24.390 29.283 C 24.494 29.249,24.664 29.127,24.767 29.013 C 25.131 28.611,25.153 28.862,24.321 24.091 C 23.910 21.732,23.573 19.789,23.573 19.773 C 23.573 19.757,24.947 18.405,26.627 16.768 C 28.306 15.131,29.746 13.697,29.827 13.581 C 30.146 13.123,29.970 12.435,29.467 12.172 C 29.366 12.119,27.726 11.861,25.013 11.471 L 20.720 10.853 18.773 6.950 C 17.703 4.804,16.791 3.006,16.747 2.955 C 16.512 2.685,15.927 2.593,15.547 2.766 M17.600 9.104 C 18.465 10.853,19.218 12.341,19.272 12.411 C 19.491 12.691,19.630 12.720,23.178 13.224 C 25.053 13.490,26.640 13.720,26.705 13.735 C 26.805 13.757,26.588 13.992,25.238 15.318 C 21.733 18.762,21.559 18.942,21.517 19.167 C 21.488 19.323,21.632 20.259,22.096 22.927 C 22.435 24.880,22.708 26.482,22.703 26.486 C 22.698 26.490,21.253 25.735,19.493 24.807 C 16.418 23.187,16.282 23.121,16.000 23.121 C 15.718 23.121,15.582 23.187,12.507 24.807 C 10.747 25.735,9.302 26.490,9.297 26.486 C 9.292 26.482,9.562 24.946,9.897 23.073 C 10.232 21.200,10.507 19.560,10.507 19.428 C 10.507 19.297,10.469 19.109,10.422 19.012 C 10.375 18.913,9.193 17.711,7.763 16.310 C 5.817 14.402,5.210 13.778,5.274 13.750 C 5.321 13.730,6.906 13.494,8.795 13.227 C 12.372 12.720,12.508 12.692,12.728 12.411 C 12.782 12.342,13.535 10.854,14.400 9.104 C 15.265 7.354,15.985 5.923,16.000 5.923 C 16.015 5.923,16.735 7.354,17.600 9.104 " fill="#1A1C1F" stroke="none" fill-rule="evenodd"></path></svg>
